public/assets/block-pattern.svg

<svg width="29" height="11" viewBox="0 0 29 11" fill="none" xmlns="http://www.w3.org/2000/svg">
<path d="M8.30594 7.11595H4.53565V3.88427H10.999V10.3476H1.30396V0.652588H14.2307M14.2307 0.652588V10.3476H27.696V0.652588M14.2307 0.652588H24.4644V7.11595H16.9238V3.88427H21.2327" stroke="#574E49"/>
</svg>

<svg xmlns="http://www.w3.org/2000/svg" width="29" height="11" fill="none" viewBox="0 0 29 11"><path stroke="#91837c" d="M8.306 7.116h-3.77V3.884h6.463v6.464H1.304V.653h12.927m0 0v9.695h13.465V.653m-13.465 0h10.233v6.463h-7.54V3.884h4.309"/></svg>
